X:12
T:In the Lane to Carran
R:fling
C:Jim McGraw
O:Co. Fermanagh, Ireland
S:http://www.cranfordpub.com/recordings/mcgraw.htm
D:Melodious Accord, Jim McGraw
Z:psc
H:These three flings take their titles from the townland of Drumbeggan. The mile-long concrete lane below our house leads In the Lane to Carran passing a large circle of trees known locally as The Fairy Fort and ending at The Poet's House (Peadar Burns) overlooking the lakes of Carran and Ross and the surrounding Boho countryside. A truly inspirational part of Fermanagh.
L:1/8
Q:333
M:C|
K:D
E|DFEG FAAF|GA (3(Bcd) cAGE|DFEG FAAF|(3(GAG) FD EDCE|
DFEG FAAF|GA (3(Bcd) cAGE|DFEG FAGB|Adce dDD:|
|:e|fd ~d2 gdfd|edcB Aceg|fd ~d2 gdfd|edcB A2 de|
fd ~d2 gdfd|edcB AF (3(GFE)|DFEG FAGB|Adce dDD:|
